X:4316
T:Doubtful Shepherd. BF11.49
M:4/4
Q:220
C:Browne A hand
S:MS11,c1800?.,Browne Coll.,Lakes
R:Reel
O:England
A:Lakes
Z:vmp.Chris Partington
K:G
"key D in MS"g2d2cBAG|F2A2A4|E2GEF2AF|G2B2d2g2|!
g2d2dcBA|F2A2A4|E2GEF2AF|G2G2G4::!
dBdBG2G2|AFAFD4|E2GEF2AF|{AB}c2B2B2A2|!
dBdBG2G2|AFAFD4|B2dBc2ec|d2f2g4:|]


